X:1
T:Paddy was up to the Gauger
N:c.f. Drops of Brandy
M:9/8
L:1/8
R:Slip Jig
B:Stephen Grier music manuscript collection (Book 3, c. 1883, No. 170, p. 54)
B: http://grier.itma.ie/book-three#?c=0&m=0&s=0&cv=53&z=-226.2156%2C373.901%2C2876.4366%2C1197.8184
N:Stephen Grier (c. 1824-1894) was a piper and fiddler from
N:Newpark, Bohey, Gortletteragh, south Co. Leitrim.
Z:AK/Fiddler’s Companion
K:G
ded BGB BGB|ded BGB c2A|ded BGB BGB|cBc AFA c2A:|
|:GBd gdB gdB|GBd gdB c2A|GBd ga/g/f gdB|cBc AFA c2A:|
gdc BGB BGB|gdc BGB c2A|gdc BGB BGB|cBc AFA c2A|
gdc BGB BGB|gdc BGB c2A|ga/g/f gdB gdB|cBc AFA c2A2||

